X:1
T: Lango Lee
C:Gow
R:Jig
Q:180
K:A
M:6/8
L:1/16
|:A6c6|B2A2B2 c2A2F2|E2F2A2 A4f2|e2d2c2 B4A2|
A6c6|B2A2B2 c2A2F2|E2F2A2 A4f2|e2d2c2 B4A2|
c2d2e2 e2f2=g2|f2e2d2 c2B2A2|c2d2e2 e2f2g2|g6a4A2|
A2c2e2 a2g2f2|e2d2c2 B4A2|A2E2F2 A2E2F2|A2d2c2 B4A2:|
